dist/assets/img/icons/search.svg

<svg width="20" height="20" viewBox="0 0 20 20" fill="none" xmlns="http://www.w3.org/2000/svg">
<path d="M19.8009 18.8212L14.3993 13.4195C14.399 13.4192 14.399 13.4187 14.3993 13.4185C15.5555 12.0548 16.2274 10.3465 16.3099 8.5605C16.5423 3.72187 12.692 -0.172976 7.85102 0.005926C3.58696 0.167324 0.167322 3.58697 0.0059234 7.85103C-0.172939 12.692 3.72195 16.5424 8.56061 16.3098C10.3465 16.2272 12.0547 15.5554 13.4184 14.3992C13.4187 14.3989 13.4192 14.3989 13.4195 14.3992L18.8212 19.8009C19.0938 20.0693 19.5325 20.0659 19.8009 19.7933C20.0664 19.5236 20.0664 19.0908 19.8009 18.8212ZM1.56157 9.73139C1.02979 7.35761 1.72442 5.0149 3.36969 3.36966C5.01497 1.72442 7.35761 1.02976 9.73146 1.56158C11.9774 2.06488 14.2546 4.34188 14.7579 6.58754C15.29 8.96159 14.5953 11.3046 12.9499 12.9499C11.3046 14.5953 8.96147 15.29 6.58742 14.7578C4.34176 14.2544 2.06487 11.9771 1.56157 9.73139Z" fill="white"/>
</svg>

<svg width="20" height="20" fill="none" xmlns="http://www.w3.org/2000/svg"><path d="M19.8 18.821l-5.4-5.402c-.001 0-.001 0 0 0a8.09 8.09 0 001.91-4.859c.232-4.838-3.618-8.733-8.46-8.554A8.16 8.16 0 00.006 7.85c-.179 4.841 3.716 8.691 8.555 8.459a8.09 8.09 0 004.858-1.91l5.402 5.4a.693.693 0 00.98-.979zM1.563 9.731C1.03 7.358 1.724 5.015 3.37 3.37c1.645-1.646 3.988-2.34 6.36-1.808 2.246.503 4.524 2.78 5.027 5.026.532 2.374-.163 4.717-1.808 6.362-1.645 1.645-3.989 2.34-6.363 1.808-2.245-.504-4.522-2.78-5.025-5.027z" fill="#fff"/></svg>
